// @title W01-01
// @license CC BY-NC-SA 4.0 https://creativecommons.org/licenses/by-nc-sa/4.0/
// @by celine tran
// @date Jan 12, 2026

// 01
setcps(1)
s("d110_sh:1*6, ~ bd:2 <d110_lt:1>@3, emumodular_misc:1*2 ~ , [compurhythm8000_ht compurhythm8000_ht:2], bytebeat")
