// @title W01-02
// @license CC BY-NC-SA 4.0 https://creativecommons.org/licenses/by-nc-sa/4.0/
// @by celine tran
// @date Jan 13, 2026

// 02
setcps(0.5)
s("[piano:1 kawai:37]*2, [casio:2 casio:1 ~ casio:3]*2, <gtr:1 ~ gtr:2 gtr:3>, sax_vib:19")
