// @title W01-03
// @license CC BY-NC-SA 4.0 https://creativecommons.org/licenses/by-nc-sa/4.0/
// @by celine tran
// @date Jan 14, 2026

// 03
setcps(1)
s("[[bd [cp rim] ~ [hh [hh hh]]]/2 . bd cp cp rim], bd sd ~ sd, hh*4, [balafon:6]!2*2")
