// @title W01-04
// @license CC BY-NC-SA 4.0 https://creativecommons.org/licenses/by-nc-sa/4.0/
// @by celine tran
// @date Jan 15, 2026

// 04
n("0 [1 3] 2@2 4 1 ~ 3")
  .s("perc")
  .bank("EmuDrumulator")
