// @title W05-03
// @license CC BY-NC-SA 4.0 https://creativecommons.org/licenses/by-nc-sa/4.0/
// @by celine tran
// @date Feb 11, 2026

// 03

$:s("pulse").seg(16).dec(.1).fm(time).fmh(time).gain(0.5)

$:s ("supersaw").detune(1).rel(5).beat(2,32).slow(2).fm("2").fmh(2.04).room(1).roomsize(6).gain(0.5)

$:n(irand(10).sub(21).seg(16)).scale("c:minor").rib(46,1)._pianoroll().gain(2)

$:s("gm_lead_7_fifths").struct("0 1").fast(4).sometimesBy(.1,ply("2")).gain(0.52)
