// @title W04-03
// @license CC BY-NC-SA 4.0 https://creativecommons.org/licenses/by-nc-sa/4.0/
// @by celine tran
// @date Feb 4, 2026

// 03

stack(
note("db ~ gb ~ ab ~")
  .sound("sine")
  .octave(-1)
  .slow(2)
.release(0.4),
  
note("<~ db ~ gb ~>")
  .sound("gm_tubular_bells")
  .slow(2)
  .gain(0.3)
.release(0.4),
  
  sound("bd [~ rim] mt [lt ht]")
  .every(6, x=>x.rev())
  .chunk(4, x => x.hurry(2))
  .degradeBy(0.2)
)
