// @title W08-05
// @license CC BY-NC-SA 4.0 https://creativecommons.org/licenses/by-nc-sa/4.0/
// @by celine tran
// @date March 6, 2026

// 05

voronoi(5,3,2)
  .color(7, 1.9,2.3)
  .modulate(o0, 0.8)
  .mult(osc(8,0,4))
  .scale(-1,1,1)
  .contrast( () => Math.sin(time) * 3.5 )
  .out(o0)
